logos/qt.svg

<?xml version="1.0" encoding="UTF-8"?>
<svg width="256px" height="192px" viewBox="0 0 256 192" version="1.1" xmlns="http://www.w3.org/2000/svg" xmlns:xlink="http://www.w3.org/1999/xlink" preserveAspectRatio="xMidYMid">
    <g>
        <polygon fill="#41CD52" points="231.39151 0 222.491837 0 35.5114422 0 0 36.0842074 0 156.748201 0 166.590235 0 191.591183 24.6049796 191.591183 33.5046531 191.591183 220.485047 191.591183 255.99649 155.507862 255.99649 34.842095 255.99649 25.0018341 255.99649 0"></polygon>
        <path d="M95.4533604,33.5122102 C112.118436,33.5122102 123.810163,38.300682 130.441293,47.9645115 C137.159673,57.5396821 140.475238,72.3457329 140.475238,92.3826636 C140.475238,105.591966 139.079211,116.231044 136.374408,124.299898 C133.581481,132.456525 129.132517,138.662654 122.850394,142.918286 L136.374408,165.170804 L119.709333,173.062341 L105.312803,149.034869 C103.218762,149.655482 99.9904489,150.011005 95.4533604,150.011005 C78.6137825,150.011005 66.8348028,145.400738 60.2036733,136.179316 C53.5725443,126.959668 50.2569797,112.330935 50.2569797,92.470436 C50.2569797,72.5221642 53.6597959,57.7170001 60.378177,48.0531703 C67.0965576,38.3884544 78.7882857,33.5122102 95.4533604,33.5122102 Z M180.436517,39.8965438 L180.436517,63.8344699 L202.772953,63.8344699 L202.772953,79.1715881 L180.436517,79.1715881 L180.436517,115.434 C180.436517,122.171197 180.960027,126.604146 181.919796,128.732848 C182.878692,130.949322 185.409864,132.01323 189.33619,132.01323 L202.598449,131.48039 L203.382842,145.844032 C196.229075,147.261689 190.731345,147.971848 186.893143,147.971848 C177.731714,147.971848 171.449592,145.844032 168.045903,141.588401 C164.643959,137.332769 162.898925,129.263915 162.898925,117.384498 L162.898925,79.0838157 L150.509184,79.0838157 L150.509184,63.8344699 L162.898925,63.8344699 L162.898925,39.8965438 L180.436517,39.8965438 Z M95.7729174,48.3225658 C85.673916,48.3225658 78.709087,51.7502011 74.8784313,58.695673 C71.1348361,65.6411448 69.219508,76.6456586 69.219508,91.8896161 C69.219508,107.043373 71.0477755,117.957686 74.7043105,124.452153 C78.3608455,130.94662 85.4127347,134.284055 95.7729174,134.284055 C106.1331,134.284055 113.097929,131.036821 116.754464,124.632555 C120.323939,118.228289 122.152207,107.313976 122.152207,92.0700184 C122.152207,76.7358597 120.323939,65.6411448 116.580343,58.695673 C112.836748,51.7502011 105.871919,48.3225658 95.7729174,48.3225658 Z" fill="#FFFFFF"></path>
    </g>
</svg>

<svg width="256" height="192" xmlns="http://www.w3.org/2000/svg" preserveAspectRatio="xMidYMid">
	<path fill="#41CD52" d="M231.392 0H35.512L0 36.084v155.507H220.485l35.511-36.083V0z"/>
	<path d="M95.453 33.512c16.665 0 28.357 4.789 34.988 14.453 6.719 9.575 10.034 24.38 10.034 44.418 0 13.209-1.396 23.848-4.1 31.917-2.794 8.157-7.242 14.363-13.525 18.618l13.524 22.253-16.665 7.891-14.396-24.027c-2.094.62-5.323.976-9.86.976-16.84 0-28.618-4.61-35.25-13.832-6.63-9.22-9.946-23.848-9.946-43.709 0-19.948 3.403-34.753 10.121-44.417 6.719-9.665 18.41-14.54 35.075-14.54Zm84.984 6.385v23.937h22.336v15.338h-22.336v36.262c0 6.737.523 11.17 1.483 13.299.959 2.216 3.49 3.28 7.416 3.28l13.262-.533.785 14.364c-7.154 1.418-12.652 2.128-16.49 2.128-9.161 0-15.443-2.128-18.847-6.384-3.402-4.255-5.147-12.324-5.147-24.204v-38.3h-12.39v-15.25h12.39V39.897h17.538Zm-84.664 8.426c-10.1 0-17.064 3.427-20.895 10.373-3.743 6.945-5.658 17.95-5.658 33.194 0 15.153 1.828 26.068 5.484 32.562 3.657 6.495 10.709 9.832 21.069 9.832s17.325-3.247 20.981-9.651c3.57-6.405 5.398-17.319 5.398-32.563 0-15.334-1.828-26.429-5.572-33.374-3.743-6.946-10.708-10.373-20.807-10.373Z" fill="#FFF"/>
</svg>
